Yaru++/actions/symbolic/mail-send-receive-symbolic.svg

<svg height="16" width="16" xmlns="http://www.w3.org/2000/svg"><path d="m4.998 1c-.76.348-1.535.736-2.323 1.166-.78.43-1.534.876-2.26 1.334.726.45 1.48.89 2.26 1.32.789.43 1.565.823 2.325 1.18v-2h4.37c1.013 0 1.975.08 2.606.41.631.331 1.024.948 1.024 2.09v2.5h1v-2.5c0-1.5-.642-2.493-1.56-2.975-.916-.481-2.016-.525-3.07-.525h-4.371zm-2.998 6v2.5c0 1.5.64 2.493 1.558 2.975.918.481 2.018.525 3.07.525h4.373v2c.76-.348 1.536-.736 2.325-1.166.78-.43 1.532-.876 2.257-1.334a51.85 51.85 0 0 0 -2.257-1.32 43.07 43.07 0 0 0 -2.326-1.18v2h-4.372c-1.012 0-1.974-.08-2.605-.41-.631-.331-1.023-.84-1.023-2.09v-2.5z" fill="#808080"/></svg>

<svg height="16" width="16" xmlns="http://www.w3.org/2000/svg">
    <path d="M4.998 1c-.76.348-1.535.736-2.323 1.166-.78.43-1.534.876-2.26 1.334.726.45 1.48.89 2.26 1.32C3.464 5.25 4.24 5.643 5 6V4h4.37c1.013 0 1.975.08 2.606.41.631.331 1.024.948 1.024 2.09V9h1V6.5c0-1.5-.642-2.493-1.56-2.975C11.524 3.044 10.424 3 9.37 3H4.999zM2 7v2.5c0 1.5.64 2.493 1.558 2.975.918.481 2.018.525 3.07.525h4.373v2c.76-.348 1.536-.736 2.325-1.166.78-.43 1.532-.876 2.257-1.334a51.85 51.85 0 0 0-2.257-1.32A43.07 43.07 0 0 0 11 10H11v2H6.628c-1.012 0-1.974-.08-2.605-.41C3.392 11.259 3 10.75 3 9.5V7z" style="line-height:normal;font-variant-ligatures:none;font-variant-position:normal;font-variant-caps:normal;font-variant-numeric:normal;font-variant-alternates:normal;font-feature-settings:normal;text-indent:0;text-align:start;text-decoration-line:none;text-decoration-style:solid;text-decoration-color:#000;text-transform:none;shape-padding:0;isolation:auto;mix-blend-mode:normal;marker:none" color="#000" font-weight="400" font-family="sans-serif" white-space="normal" overflow="visible" fill="gray"/>
</svg>
